!!!OTL: 238. Kozatshke
!!!Genre:	Kozatshke
!!!Mode:	Minor
!!!Listening/dance:	dance
!!!:	*B-:
!!!One_Mode:	no
**kern
*thru
*I"P1
*clefG2
*k[b-e-]
*B-:
(16ggLL
16ffJJ)
=10!|:
!LO:TX:a:i:t=Bb-major
(16eenLL
16ff)
16gg
16ffJJ
(16eeLL
16ff)
16dd
16b-JJ
=11
(8qb-/
16aLL)
16b-
16cc
16ddJJ
16ee-XLL
16ff
16gg
16aaJJ
=12
16bb-LL
16aa
16bb-
16cccJJ
16dddLL
16aa
16bb-
16ggJJ
=13
(16ggLL
16ffJJ)
4ff
16ee-LL
16ddJJ
=14
8ee-
4gg
16ffLL
16ee-JJ
=15
16ddLL
16ee-JJ
4ff
16ee-LL
16ddJJ
=16
8.ccL
16ddJk
16ee-LL
16f
16g
16aJJ
*>B1
=17
(16ccLL
16b-JJ)
4b-
(16ggLL
16ffJJ)
*>B
!!!Begin-Modulation
*B-:
(16ggLL
16ffJJ)
=10!|:
!LO:TX:a:i:t=Bb-major
(16eenLL
16ff)
16gg
16ffJJ
(16eeLL
16ff)
16dd
16b-JJ
=11
(8qb-/
16aLL)
16b-
16cc
16ddJJ
16ee-XLL
16ff
16gg
16aaJJ
=12
16bb-LL
16aa
16bb-
16cccJJ
16dddLL
16aa
16bb-
16ggJJ
=13
(16ggLL
16ffJJ)
4ff
16ee-LL
16ddJJ
=14
8ee-
4gg
16ffLL
16ee-JJ
=15
16ddLL
16ee-JJ
4ff
16ee-LL
16ddJJ
=16
8.ccL
16ddJk
16ee-LL
16f
16g
16aJJ
*>B2
=18:|!
(16ccLL
16b-JJ)
4b-
*>C
!!!End-Modulation
*-
